ui/StatusQ/src/assets/img/icons/tiny/tiny-contact.svg

<svg fill="none" height="8" viewBox="0 0 6 8" width="6" xmlns="http://www.w3.org/2000/svg"><g fill="#fff"><path d="m2.99996 3.6875c.77665 0 1.40625-.6296 1.40625-1.40625s-.6296-1.40625-1.40625-1.40625-1.40625.6296-1.40625 1.40625.6296 1.40625 1.40625 1.40625z"/><path d="m.577101 6.50632c.275321-1.08147 1.255679-1.88132 2.422859-1.88132s2.14754.79985 2.42286 1.88132c.08516.33451-.20268.61868-.54786.61868h-3.75c-.345179 0-.633018-.28417-.547859-.61868z"/></g></svg>

<svg width="6" height="8" viewBox="0 0 6 8" fill="none" xmlns="http://www.w3.org/2000/svg">
<path d="M2.99996 3.6875C3.77661 3.6875 4.40621 3.0579 4.40621 2.28125C4.40621 1.5046 3.77661 0.875 2.99996 0.875C2.22331 0.875 1.59371 1.5046 1.59371 2.28125C1.59371 3.0579 2.22331 3.6875 2.99996 3.6875Z" fill="white"/>
<path d="M0.577101 6.50632C0.852422 5.42485 1.83278 4.625 2.99996 4.625C4.16714 4.625 5.1475 5.42485 5.42282 6.50632C5.50798 6.84083 5.22014 7.125 4.87496 7.125H1.12496C0.779781 7.125 0.491942 6.84083 0.577101 6.50632Z" fill="white"/>
</svg>
